icons/modern/clutch-bag.svg

<svg width="32" height="32" viewBox="0 0 32 32" fill="none" xmlns="http://www.w3.org/2000/svg">
<g filter="url(#filter0_ii_18_17080)">
<path fill-rule="evenodd" clip-rule="evenodd" d="M2.18158 7.21978C1.78255 7.52168 1.75548 8.11168 2.12518 8.44885L4.3955 10.5194C4.78838 10.8777 5.37448 10.9233 5.81801 10.63C6.3466 10.2805 6.49719 9.57162 6.15635 9.03739L4.54631 6.51381C4.29515 6.12014 3.7616 6.02437 3.3892 6.30612L2.18158 7.21978ZM5.1715 10.2325C5.48639 10.2325 5.74165 9.97723 5.74165 9.66235C5.74165 9.34746 5.48639 9.09219 5.1715 9.09219C4.85662 9.09219 4.60135 9.34746 4.60135 9.66235C4.60135 9.97723 4.85662 10.2325 5.1715 10.2325Z" fill="url(#paint0_linear_18_17080)"/>
<path fill-rule="evenodd" clip-rule="evenodd" d="M2.18158 7.21978C1.78255 7.52168 1.75548 8.11168 2.12518 8.44885L4.3955 10.5194C4.78838 10.8777 5.37448 10.9233 5.81801 10.63C6.3466 10.2805 6.49719 9.57162 6.15635 9.03739L4.54631 6.51381C4.29515 6.12014 3.7616 6.02437 3.3892 6.30612L2.18158 7.21978ZM5.1715 10.2325C5.48639 10.2325 5.74165 9.97723 5.74165 9.66235C5.74165 9.34746 5.48639 9.09219 5.1715 9.09219C4.85662 9.09219 4.60135 9.34746 4.60135 9.66235C4.60135 9.97723 4.85662 10.2325 5.1715 10.2325Z" fill="url(#paint1_radial_18_17080)"/>
</g>
<g filter="url(#filter1_i_18_17080)">
<path d="M2.921 14.4515C3.2517 11.6862 5.59713 9.60458 8.38208 9.60458H23.5813C26.3573 9.60458 28.6982 11.6733 29.0395 14.4282L30.0894 22.9004C30.5329 26.4795 27.7414 29.6383 24.135 29.6383H7.86508C4.2689 29.6383 1.48049 26.4965 1.90753 22.9258L2.921 14.4515Z" fill="url(#paint2_linear_18_17080)"/>
<path d="M2.921 14.4515C3.2517 11.6862 5.59713 9.60458 8.38208 9.60458H23.5813C26.3573 9.60458 28.6982 11.6733 29.0395 14.4282L30.0894 22.9004C30.5329 26.4795 27.7414 29.6383 24.135 29.6383H7.86508C4.2689 29.6383 1.48049 26.4965 1.90753 22.9258L2.921 14.4515Z" fill="url(#paint3_linear_18_17080)"/>
</g>
<g filter="url(#filter2_i_18_17080)">
<path d="M29.955 21.8153L30.0894 22.9004C30.5329 26.4795 27.7414 29.6383 24.1349 29.6383H7.86508C4.26888 29.6383 1.48049 26.4965 1.90753 22.9258L2.04034 21.8153H29.955Z" fill="url(#paint4_linear_18_17080)"/>
<path d="M29.955 21.8153L30.0894 22.9004C30.5329 26.4795 27.7414 29.6383 24.1349 29.6383H7.86508C4.26888 29.6383 1.48049 26.4965 1.90753 22.9258L2.04034 21.8153H29.955Z" fill="url(#paint5_linear_18_17080)"/>
</g>
<path d="M29.955 21.8153L30.0894 22.9004C30.5329 26.4795 27.7414 29.6383 24.1349 29.6383H7.86508C4.26888 29.6383 1.48049 26.4965 1.90753 22.9258L2.04034 21.8153H29.955Z" fill="url(#paint6_radial_18_17080)"/>
<path d="M29.955 21.8153L30.0894 22.9004C30.5329 26.4795 27.7414 29.6383 24.1349 29.6383H7.86508C4.26888 29.6383 1.48049 26.4965 1.90753 22.9258L2.04034 21.8153H29.955Z" fill="url(#paint7_linear_18_17080)"/>
<g filter="url(#filter3_f_18_17080)">
<rect x="24.623" y="12.0511" width="3.0625" height="13.4403" rx="1.53125" transform="rotate(-7.13108 24.623 12.0511)" fill="url(#paint8_linear_18_17080)"/>
<rect x="24.623" y="12.0511" width="3.0625" height="13.4403" rx="1.53125" transform="rotate(-7.13108 24.623 12.0511)" fill="url(#paint9_linear_18_17080)"/>
</g>
<defs>
<filter id="filter0_ii_18_17080" x="1.76426" y="6.04401" width="4.67437" height="4.87857" filterUnits="userSpaceOnUse" color-interpolation-filters="sRGB">
<feFlood flood-opacity="0" result="BackgroundImageFix"/>
<feBlend mode="normal" in="SourceGraphic" in2="BackgroundImageFix" result="shape"/>
<feColorMatrix in="SourceAlpha" type="matrix" values="0 0 0 0 0 0 0 0 0 0 0 0 0 0 0 0 0 0 127 0" result="hardAlpha"/>
<feOffset dx="-0.1" dy="0.1"/>
<feGaussianBlur stdDeviation="0.15"/>
<feComposite in2="hardAlpha" operator="arithmetic" k2="-1" k3="1"/>
<feColorMatrix type="matrix" values="0 0 0 0 1 0 0 0 0 0.866667 0 0 0 0 0.431373 0 0 0 1 0"/>
<feBlend mode="normal" in2="shape" result="effect1_innerShadow_18_17080"/>
<feColorMatrix in="SourceAlpha" type="matrix" values="0 0 0 0 0 0 0 0 0 0 0 0 0 0 0 0 0 0 127 0" result="hardAlpha"/>
<feOffset dx="0.1" dy="-0.1"/>
<feGaussianBlur stdDeviation="0.15"/>
<feComposite in2="hardAlpha" operator="arithmetic" k2="-1" k3="1"/>
<feColorMatrix type="matrix" values="0 0 0 0 1 0 0 0 0 0.764706 0 0 0 0 0.152941 0 0 0 1 0"/>
<feBlend mode="normal" in2="effect1_innerShadow_18_17080" result="effect2_innerShadow_18_17080"/>
</filter>
<filter id="filter1_i_18_17080" x="1.86426" y="9.60458" width="28.8715" height="20.0337" filterUnits="userSpaceOnUse" color-interpolation-filters="sRGB">
<feFlood flood-opacity="0" result="BackgroundImageFix"/>
<feBlend mode="normal" in="SourceGraphic" in2="BackgroundImageFix" result="shape"/>
<feColorMatrix in="SourceAlpha" type="matrix" values="0 0 0 0 0 0 0 0 0 0 0 0 0 0 0 0 0 0 127 0" result="hardAlpha"/>
<feOffset dx="0.6"/>
<feGaussianBlur stdDeviation="0.6"/>
<feComposite in2="hardAlpha" operator="arithmetic" k2="-1" k3="1"/>
<feColorMatrix type="matrix" values="0 0 0 0 0.917647 0 0 0 0 0.72549 0 0 0 0 0.690196 0 0 0 1 0"/>
<feBlend mode="normal" in2="shape" result="effect1_innerShadow_18_17080"/>
</filter>
<filter id="filter2_i_18_17080" x="1.86426" y="21.8153" width="28.8715" height="7.82297" filterUnits="userSpaceOnUse" color-interpolation-filters="sRGB">
<feFlood flood-opacity="0" result="BackgroundImageFix"/>
<feBlend mode="normal" in="SourceGraphic" in2="BackgroundImageFix" result="shape"/>
<feColorMatrix in="SourceAlpha" type="matrix" values="0 0 0 0 0 0 0 0 0 0 0 0 0 0 0 0 0 0 127 0" result="hardAlpha"/>
<feOffset dx="0.6"/>
<feGaussianBlur stdDeviation="0.6"/>
<feComposite in2="hardAlpha" operator="arithmetic" k2="-1" k3="1"/>
<feColorMatrix type="matrix" values="0 0 0 0 0.917647 0 0 0 0 0.72549 0 0 0 0 0.690196 0 0 0 1 0"/>
<feBlend mode="normal" in2="shape" result="effect1_innerShadow_18_17080"/>
</filter>
<filter id="filter3_f_18_17080" x="22.801" y="9.849" width="8.35132" height="17.3604" filterUnits="userSpaceOnUse" color-interpolation-filters="sRGB">
<feFlood flood-opacity="0" result="BackgroundImageFix"/>
<feBlend mode="normal" in="SourceGraphic" in2="BackgroundImageFix" result="shape"/>
<feGaussianBlur stdDeviation="1" result="effect1_foregroundBlur_18_17080"/>
</filter>
<linearGradient id="paint0_linear_18_17080" x1="5.79581" y1="10.5937" x2="3.35831" y2="7.65625" gradientUnits="userSpaceOnUse">
<stop stop-color="#FFC432"/>
<stop offset="1" stop-color="#FFCC47"/>
</linearGradient>
<radialGradient id="paint1_radial_18_17080" cx="0" cy="0" r="1" gradientUnits="userSpaceOnUse" gradientTransform="translate(4.70206 8.48329) rotate(-164.335) scale(2.94727 3.07865)">
<stop offset="0.696453" stop-color="#FFDD29" stop-opacity="0"/>
<stop offset="0.942256" stop-color="#FFDD29"/>
</radialGradient>
<linearGradient id="paint2_linear_18_17080" x1="16" y1="9.60458" x2="16" y2="16.3125" gradientUnits="userSpaceOnUse">
<stop offset="0.213964" stop-color="#EE9D8C"/>
<stop offset="1" stop-color="#F091A0"/>
</linearGradient>
<linearGradient id="paint3_linear_18_17080" x1="2.26456" y1="20.25" x2="7.01456" y2="20.75" gradientUnits="userSpaceOnUse">
<stop offset="0.201" stop-color="#D37E7E"/>
<stop offset="1" stop-color="#DB7F8A" stop-opacity="0"/>
</linearGradient>
<linearGradient id="paint4_linear_18_17080" x1="16" y1="21.8153" x2="16" y2="29.6383" gradientUnits="userSpaceOnUse">
<stop offset="0.335192" stop-color="#F7A7B8"/>
<stop offset="1" stop-color="#E277D3"/>
</linearGradient>
<linearGradient id="paint5_linear_18_17080" x1="2.38956" y1="25.7268" x2="7.63956" y2="25.7268" gradientUnits="userSpaceOnUse">
<stop offset="0.31562" stop-color="#D8929A"/>
<stop offset="1" stop-color="#D8929A" stop-opacity="0"/>
</linearGradient>
<radialGradient id="paint6_radial_18_17080" cx="0" cy="0" r="1" gradientUnits="userSpaceOnUse" gradientTransform="translate(16 20.9375) rotate(90) scale(2.0625 13.0167)">
<stop offset="0.484849" stop-color="#F7A7B8"/>
<stop offset="1" stop-color="#F7A7B8" stop-opacity="0"/>
</radialGradient>
<linearGradient id="paint7_linear_18_17080" x1="17.3896" y1="30" x2="17.3896" y2="28.125" gradientUnits="userSpaceOnUse">
<stop stop-color="#E277D3"/>
<stop offset="1" stop-color="#E277D3" stop-opacity="0"/>
</linearGradient>
<linearGradient id="paint8_linear_18_17080" x1="26.1543" y1="12.0511" x2="26.1543" y2="25.4914" gradientUnits="userSpaceOnUse">
<stop stop-color="#FFC4B7"/>
<stop offset="1" stop-color="#FFC4B7" stop-opacity="0"/>
</linearGradient>
<linearGradient id="paint9_linear_18_17080" x1="26.9623" y1="25.6097" x2="26.6468" y2="21.2212" gradientUnits="userSpaceOnUse">
<stop offset="0.249971" stop-color="#FFC8C8"/>
<stop offset="1" stop-color="#FFC8C8" stop-opacity="0"/>
</linearGradient>
</defs>
</svg>

<svg width="32" height="32" fill="none" xmlns="http://www.w3.org/2000/svg"><g filter="url(#a)" fill-rule="evenodd" clip-rule="evenodd"><path d="M2.182 7.22a.8.8 0 0 0-.057 1.229l2.27 2.07a1.16 1.16 0 0 0 1.761-1.482l-1.61-2.523a.8.8 0 0 0-1.157-.208l-1.207.914Zm2.99 3.013a.57.57 0 1 0 0-1.14.57.57 0 0 0 0 1.14Z" fill="url(#b)"/><path d="M2.182 7.22a.8.8 0 0 0-.057 1.229l2.27 2.07a1.16 1.16 0 0 0 1.761-1.482l-1.61-2.523a.8.8 0 0 0-1.157-.208l-1.207.914Zm2.99 3.013a.57.57 0 1 0 0-1.14.57.57 0 0 0 0 1.14Z" fill="url(#c)"/></g><g filter="url(#d)"><path d="M2.921 14.451a5.5 5.5 0 0 1 5.461-4.846h15.2a5.5 5.5 0 0 1 5.457 4.823l1.05 8.472a6 6 0 0 1-5.954 6.738H7.865a6 6 0 0 1-5.957-6.712l1.013-8.474Z" fill="url(#e)"/><path d="M2.921 14.451a5.5 5.5 0 0 1 5.461-4.846h15.2a5.5 5.5 0 0 1 5.457 4.823l1.05 8.472a6 6 0 0 1-5.954 6.738H7.865a6 6 0 0 1-5.957-6.712l1.013-8.474Z" fill="url(#f)"/></g><g filter="url(#g)"><path d="m29.955 21.815.134 1.085a6 6 0 0 1-5.954 6.738H7.865a6 6 0 0 1-5.957-6.712l.132-1.11h27.915Z" fill="url(#h)"/><path d="m29.955 21.815.134 1.085a6 6 0 0 1-5.954 6.738H7.865a6 6 0 0 1-5.957-6.712l.132-1.11h27.915Z" fill="url(#i)"/></g><path d="m29.955 21.815.134 1.085a6 6 0 0 1-5.954 6.738H7.865a6 6 0 0 1-5.957-6.712l.132-1.11h27.915Z" fill="url(#j)"/><path d="m29.955 21.815.134 1.085a6 6 0 0 1-5.954 6.738H7.865a6 6 0 0 1-5.957-6.712l.132-1.11h27.915Z" fill="url(#k)"/><g filter="url(#l)" transform="rotate(-7.131 24.623 12.051)"><rect x="24.623" y="12.051" width="3.063" height="13.44" rx="1.531" fill="url(#m)"/><rect x="24.623" y="12.051" width="3.063" height="13.44" rx="1.531" fill="url(#n)"/></g><defs><linearGradient id="b" x1="5.796" y1="10.594" x2="3.358" y2="7.656" gradientUnits="userSpaceOnUse"><stop stop-color="#FFC432"/><stop offset="1" stop-color="#FFCC47"/></linearGradient><linearGradient id="e" x1="16" y1="9.605" x2="16" y2="16.313" gradientUnits="userSpaceOnUse"><stop offset=".214" stop-color="#EE9D8C"/><stop offset="1" stop-color="#F091A0"/></linearGradient><linearGradient id="f" x1="2.265" y1="20.25" x2="7.015" y2="20.75" gradientUnits="userSpaceOnUse"><stop offset=".201" stop-color="#D37E7E"/><stop offset="1" stop-color="#DB7F8A" stop-opacity="0"/></linearGradient><linearGradient id="h" x1="16" y1="21.815" x2="16" y2="29.638" gradientUnits="userSpaceOnUse"><stop offset=".335" stop-color="#F7A7B8"/><stop offset="1" stop-color="#E277D3"/></linearGradient><linearGradient id="i" x1="2.39" y1="25.727" x2="7.64" y2="25.727" gradientUnits="userSpaceOnUse"><stop offset=".316" stop-color="#D8929A"/><stop offset="1" stop-color="#D8929A" stop-opacity="0"/></linearGradient><linearGradient id="k" x1="17.39" y1="30" x2="17.39" y2="28.125" gradientUnits="userSpaceOnUse"><stop stop-color="#E277D3"/><stop offset="1" stop-color="#E277D3" stop-opacity="0"/></linearGradient><linearGradient id="m" x1="26.154" y1="12.051" x2="26.154" y2="25.491" gradientUnits="userSpaceOnUse"><stop stop-color="#FFC4B7"/><stop offset="1" stop-color="#FFC4B7" stop-opacity="0"/></linearGradient><linearGradient id="n" x1="26.962" y1="25.61" x2="26.647" y2="21.221" gradientUnits="userSpaceOnUse"><stop offset=".25" stop-color="#FFC8C8"/><stop offset="1" stop-color="#FFC8C8" stop-opacity="0"/></linearGradient><filter id="a" x="1.764" y="6.044" width="4.674" height="4.879" filterUnits="userSpaceOnUse" color-interpolation-filters="sRGB"><feFlood flood-opacity="0" result="BackgroundImageFix"/><feBlend in="SourceGraphic" in2="BackgroundImageFix" result="shape"/><feColorMatrix in="SourceAlpha" values="0 0 0 0 0 0 0 0 0 0 0 0 0 0 0 0 0 0 127 0" result="hardAlpha"/><feOffset dx="-.1" dy=".1"/><feGaussianBlur stdDeviation=".15"/><feComposite in2="hardAlpha" operator="arithmetic" k2="-1" k3="1"/><feColorMatrix values="0 0 0 0 1 0 0 0 0 0.866667 0 0 0 0 0.431373 0 0 0 1 0"/><feBlend in2="shape" result="effect1_innerShadow_18_17080"/><feColorMatrix in="SourceAlpha" values="0 0 0 0 0 0 0 0 0 0 0 0 0 0 0 0 0 0 127 0" result="hardAlpha"/><feOffset dx=".1" dy="-.1"/><feGaussianBlur stdDeviation=".15"/><feComposite in2="hardAlpha" operator="arithmetic" k2="-1" k3="1"/><feColorMatrix values="0 0 0 0 1 0 0 0 0 0.764706 0 0 0 0 0.152941 0 0 0 1 0"/><feBlend in2="effect1_innerShadow_18_17080" result="effect2_innerShadow_18_17080"/></filter><filter id="d" x="1.864" y="9.605" width="28.872" height="20.034" filterUnits="userSpaceOnUse" color-interpolation-filters="sRGB"><feFlood flood-opacity="0" result="BackgroundImageFix"/><feBlend in="SourceGraphic" in2="BackgroundImageFix" result="shape"/><feColorMatrix in="SourceAlpha" values="0 0 0 0 0 0 0 0 0 0 0 0 0 0 0 0 0 0 127 0" result="hardAlpha"/><feOffset dx=".6"/><feGaussianBlur stdDeviation=".6"/><feComposite in2="hardAlpha" operator="arithmetic" k2="-1" k3="1"/><feColorMatrix values="0 0 0 0 0.917647 0 0 0 0 0.72549 0 0 0 0 0.690196 0 0 0 1 0"/><feBlend in2="shape" result="effect1_innerShadow_18_17080"/></filter><filter id="g" x="1.864" y="21.815" width="28.872" height="7.823" filterUnits="userSpaceOnUse" color-interpolation-filters="sRGB"><feFlood flood-opacity="0" result="BackgroundImageFix"/><feBlend in="SourceGraphic" in2="BackgroundImageFix" result="shape"/><feColorMatrix in="SourceAlpha" values="0 0 0 0 0 0 0 0 0 0 0 0 0 0 0 0 0 0 127 0" result="hardAlpha"/><feOffset dx=".6"/><feGaussianBlur stdDeviation=".6"/><feComposite in2="hardAlpha" operator="arithmetic" k2="-1" k3="1"/><feColorMatrix values="0 0 0 0 0.917647 0 0 0 0 0.72549 0 0 0 0 0.690196 0 0 0 1 0"/><feBlend in2="shape" result="effect1_innerShadow_18_17080"/></filter><filter id="l" x="22.801" y="9.849" width="8.351" height="17.36" filterUnits="userSpaceOnUse" color-interpolation-filters="sRGB"><feFlood flood-opacity="0" result="BackgroundImageFix"/><feBlend in="SourceGraphic" in2="BackgroundImageFix" result="shape"/><feGaussianBlur stdDeviation="1" result="effect1_foregroundBlur_18_17080"/></filter><radialGradient id="c" cx="0" cy="0" r="1" gradientUnits="userSpaceOnUse" gradientTransform="matrix(-2.8378 -.7958 .83127 -2.9643 4.702 8.483)"><stop offset=".696" stop-color="#FFDD29" stop-opacity="0"/><stop offset=".942" stop-color="#FFDD29"/></radialGradient><radialGradient id="j" cx="0" cy="0" r="1" gradientUnits="userSpaceOnUse" gradientTransform="matrix(0 2.0625 -13.0167 0 16 20.938)"><stop offset=".485" stop-color="#F7A7B8"/><stop offset="1" stop-color="#F7A7B8" stop-opacity="0"/></radialGradient></defs></svg>
